X: 35696
T: Saint Anne's
R: reel
M: 4/4
K: Dmajor
de|:"D" fedc "G" edcB|"D" A2FA DAFA|"G" B2GB DBGB|"D" AGFE DFAd|
"D" fedc "G" edcB|"D" A2FA DAFA|"G" BGBd "A7" cAce|1 "D" defe d2 de:|2 "D" defe d2 ag||
|:"D" fdfa fdfa|"Em" aggf ~g3f|"A7" eceg eceg|"D" baa^g "A" a3g|
"Bm" fdfa fdfa|"Em" aggf ~g3f|"A7" eceg eceg|1 fdec "D" d2 ag:|2 fdec "D" d2 de||

